h5_client/assets/icon/font.svg

<svg height="32" viewBox="0 0 1024 1024" width="32" xmlns="http://www.w3.org/2000/svg"><g fill="#030000"><path d="m609.28 232.32h-456.32v172.16h100.48v-71.68h127.36v417.92h-74.24v100.48h249.6v-100.48h-74.88v-417.92h128v71.68h100.48v-172.16z"/><path d="m812.8 492.16h-264.96v99.84h58.24v-41.6h74.24v242.56h-42.88v58.24h144.64v-58.24h-43.52v-242.56h74.24v41.6h58.24v-99.84z"/></g></svg>

<?xml version="1.0" standalone="no"?><!DOCTYPE svg PUBLIC "-//W3C//DTD SVG 1.1//EN" "http://www.w3.org/Graphics/SVG/1.1/DTD/svg11.dtd"><svg t="1546826755679" class="icon" style="" viewBox="0 0 1024 1024" version="1.1" xmlns="http://www.w3.org/2000/svg" p-id="2017" xmlns:xlink="http://www.w3.org/1999/xlink" width="32" height="32"><defs><style type="text/css"></style></defs><path d="M609.28 232.32H152.96V404.48h100.48V332.8h127.36v417.92H306.56v100.48h249.6v-100.48H481.28V332.8h128v71.68h100.48V232.32H609.28z" fill="#030000" p-id="2018"></path><path d="M812.8 492.16H547.84v99.84h58.24V550.4h74.24v242.56h-42.88v58.24H782.08v-58.24h-43.52V550.4h74.24v41.6h58.24V492.16h-58.24z" fill="#030000" p-id="2019"></path></svg>
